public/assets/svg/sergioEscobar.svg

<svg width="97" height="44" viewBox="0 0 97 44" fill="none" xmlns="http://www.w3.org/2000/svg">
<path d="M23.208 33.5521C24.7286 33.8457 25.7423 33.1304 26.6632 31.7371C33.1632 21.867 39.6811 12.0236 46.1846 2.15875C48.08 -0.71848 49.0295 -0.69713 50.9427 2.08936C52.7381 4.69969 54.605 7.19792 56.3397 10.1072C54.2766 10.0271 53.4342 12.2531 52.3598 13.8492C46.1096 23.1535 39.8917 32.5005 33.6558 41.8262C31.7069 44.7408 30.7538 44.7141 28.8013 41.8101C26.9452 39.0503 25.0748 36.3066 23.208 33.5521Z" fill="white"/>
<path d="M40.6133 33.6108C42.1303 34.0698 43.0369 33.0556 43.9043 31.7478C50.4864 21.8242 57.072 11.9167 63.6613 1.99854C65.346 -0.537055 66.5954 -0.537052 68.3158 2.03057C70.1684 4.79571 72.0102 7.57152 74.1555 10.7957C72.0602 9.91494 71.0929 11.6818 70.0363 13.2619C63.6613 22.8064 57.2684 32.3296 50.8826 41.8581C49.1478 44.4471 48.0092 44.4204 46.2495 41.8261C44.3791 39.077 42.4908 36.3492 40.6133 33.6108Z" fill="white"/>
<path d="M58.1392 33.3598C59.3386 33.6641 60.3273 33.1837 61.1875 31.8652C63.5898 28.1926 66.0027 24.5306 68.4835 20.9755C69.0189 20.2121 69.8506 19.4808 70.5502 19.4755C79.1633 19.374 87.7764 19.4114 96.3895 19.4167C96.543 19.4167 96.6965 19.4594 96.9999 19.5075C96.7465 19.9879 96.5823 20.3776 96.3717 20.6872C94.562 23.3669 92.7737 26.0787 90.9068 28.673C90.4857 29.2549 89.7932 29.6766 89.2185 29.6926C85.6205 29.7833 82.0189 29.7887 78.4209 29.7086C77.0823 29.6766 76.0508 30.2104 75.0977 31.7104C72.8739 35.2175 70.536 38.5698 68.2408 41.9755C66.4346 44.6499 65.4352 44.6179 63.6469 42.0236C61.7408 39.2584 59.7847 36.568 57.8501 33.8456C57.9429 33.6801 58.0393 33.52 58.1392 33.3598Z" fill="white"/>
<path d="M0 24.44C2.29159 21.0716 4.4297 17.8741 6.62134 14.762C6.88905 14.383 7.43161 14.3243 7.84567 14.319C11.6436 14.2869 15.445 14.3937 19.2429 14.2229C20.1103 14.1855 21.1419 13.5236 21.7808 12.6321C24.3223 9.09295 26.7388 5.35095 29.2017 1.68368C30.601 -0.40352 31.8574 -0.392845 33.2673 1.69969C35.1841 4.54489 37.1009 7.38476 39.0427 10.4809C37.1937 9.93637 36.2871 11.8314 35.2484 13.3741C33.0996 16.5716 31.0043 19.8546 28.7663 22.9079C28.0845 23.8368 27.0172 24.6268 26.1213 24.6428C17.5939 24.7709 9.06642 24.7176 0.535419 24.7122C0.467599 24.7069 0.39621 24.6428 0 24.44Z" fill="white"/>
</svg>

<svg
      width="97"
      height="44"
      viewBox="0 0 97 44"
      fill="none"
      xmlns="http://www.w3.org/2000/svg"
      
    >
      <path
        d="M23.208 33.552c1.52.294 2.534-.422 3.455-1.815 6.5-9.87 13.018-19.713 19.522-29.578 1.895-2.877 2.844-2.856 4.758-.07 1.795 2.61 3.662 5.109 5.397 8.018-2.063-.08-2.906 2.146-3.98 3.742-6.25 9.305-12.468 18.652-18.704 27.977-1.95 2.915-2.902 2.888-4.855-.016-1.856-2.76-3.726-5.503-5.593-8.258zM40.613 33.61c1.517.46 2.424-.554 3.291-1.862 6.582-9.924 13.168-19.831 19.757-29.75 1.685-2.535 2.934-2.535 4.655.033 1.852 2.765 3.694 5.54 5.84 8.765-2.096-.881-3.063.886-4.12 2.466-6.375 9.544-12.768 19.068-19.153 28.596-1.735 2.59-2.874 2.562-4.634-.032-1.87-2.749-3.758-5.477-5.636-8.215zM58.14 33.36c1.199.304 2.187-.176 3.047-1.495 2.403-3.672 4.816-7.334 7.297-10.89.535-.763 1.367-1.494 2.066-1.5 8.613-.101 17.226-.064 25.84-.058.153 0 .306.042.61.09-.254.48-.418.87-.628 1.18-1.81 2.68-3.598 5.392-5.465 7.986-.421.582-1.114 1.004-1.688 1.02-3.598.09-7.2.096-10.798.016-1.339-.032-2.37.501-3.323 2.001-2.224 3.508-4.562 6.86-6.857 10.265-1.806 2.675-2.806 2.643-4.594.049-1.906-2.766-3.862-5.456-5.797-8.178.093-.166.19-.326.29-.486zM0 24.44c2.292-3.368 4.43-6.566 6.621-9.678.268-.379.81-.438 1.225-.443 3.798-.032 7.599.075 11.397-.096.867-.038 1.899-.7 2.538-1.59 2.541-3.54 4.958-7.282 7.42-10.95 1.4-2.087 2.656-2.076 4.066.017 1.917 2.845 3.834 5.685 5.776 8.78-1.85-.544-2.756 1.351-3.795 2.894-2.148 3.198-4.244 6.48-6.482 9.534-.681.929-1.749 1.719-2.645 1.735-8.527.128-17.055.075-25.586.07-.067-.006-.139-.07-.535-.273z"
        fill="#fff"
      />
    </svg>
